Sources/FrostedUI/Resources/Icons.xcassets/mobilePhone32.imageset/mobile-phone-32.svg

<svg width="32" height="32" viewBox="0 0 32 32" fill="none" xmlns="http://www.w3.org/2000/svg" data-fui-icon="true">
  <path
    d="M20.334 1.58301C22.957 1.58338 25.0838 3.71007 25.084 6.33301V25.666C25.084 28.2892 22.9571 30.4156 20.334 30.416H11.667C9.04365 30.416 6.91699 28.2894 6.91699 25.666V6.33301C6.91719 3.70983 9.04377 1.58301 11.667 1.58301H20.334ZM11.667 3.08301C9.87219 3.08301 8.41719 4.53826 8.41699 6.33301V25.666C8.41699 27.461 9.87206 28.916 11.667 28.916H20.334C22.1287 28.9156 23.584 27.4608 23.584 25.666V6.33301C23.5838 4.53848 22.1285 3.08338 20.334 3.08301H11.667ZM19 24.916C19.4138 24.9162 19.7496 25.2522 19.75 25.666C19.75 26.0801 19.414 26.4158 19 26.416H13C12.5859 26.4158 12.25 26.0801 12.25 25.666C12.2504 25.2522 12.5862 24.9162 13 24.916H19Z"
    fill="currentColor"
  />
</svg>

<svg xmlns="http://www.w3.org/2000/svg" width="32" height="32" fill="none" data-fui-icon="true" viewBox="0 0 32 32"><path fill="currentColor" d="M20.334 1.583a4.75 4.75 0 0 1 4.75 4.75v19.333a4.75 4.75 0 0 1-4.75 4.75h-8.667a4.75 4.75 0 0 1-4.75-4.75V6.333a4.75 4.75 0 0 1 4.75-4.75zm-8.667 1.5a3.25 3.25 0 0 0-3.25 3.25v19.333a3.25 3.25 0 0 0 3.25 3.25h8.667a3.25 3.25 0 0 0 3.25-3.25V6.333a3.25 3.25 0 0 0-3.25-3.25zM19 24.916a.75.75 0 0 1 0 1.5h-6a.75.75 0 0 1 0-1.5z"/></svg>
